!!!ONB: MCCC : ILB0165_02 : Extracted Monophonic Melody
!!!COM: Beethoven, Ludwig van
!!!OPR: Piano Sonata No.4
!!!OMV: 2
!!!SCT: Op.7
!!!ODT: 1796///
**kern
*thru
*staff1
*clefG2
*k[]
*C:
*M3/4
*MM44
=1
4e
8f
8r
4r
=2
8.g
16d
8e
8r
4r
=3
4e
8d
8r
4r
=4
8.d
16A
4.c
8B
=5
4c
4d
4e
=6
4e
4d
4c
=7
[2B
8B]
8B
=8
4d
8c
8r
8.r
16c
=9
8.g
16f#
4dd
4dd
=10
4dd
8.gg
16b
16cc
16cc#
16ee
16dd
=11
8.g
16f#
4dd
4dd
=12
4dd
8.bb
16gg
32ff#
32gg
32aa
32gg
32cc#
32dd
32ee
32dd
=13
8.g
16f#
8dd
4dd
[8dd
=14
8dd]
8ff[
16ff]
32r
32ee
16dd
32r
32cc
16b
32r
32a
16g
32r
32f
=15
4e
8f
8r
4r
=16
8.g
16d
8e
4.r
=17
8.a
16e
8.f
32b-
32a
8.g
32cc
32b-
=18
8.a
32dd
32cc
8b
4ff
8ee
=19
4d
8..g
32g
8..g
32g
=20
4c#
8r
16c#
16r
16d
16r
16e
16r
=21
4r
8r
16e
16r
16f
16r
16g
16r
=22
4r
8r
8g
8a
8g
=23
4f#
8..g
32g
8..g
32g
=24
8.c
16c
16B
16c
16B
16c
16e-
16d-
16c
16B-
=25
4.e-
8e-
8e-
8a-
=26
4a-
4g
8..a
32a
=27
4a
8..b-
32b-
8..dd-
32g
=28
[4b-
8b-]
8r
4r
=29
4.cc
8cc
8cc
8cc
=30
4ee
8ff
8r
8r
16.r
32f
=31
8..g
32g
8..a-
32a-
8..b-
32g
=32
4f
4r
4r
=33
4.a-
8a-
8a-
8dd-
=34
4dd-
4cc
8..dd
32dd
=35
4dd
4ee-
8..ee
32ee
=36
8ee
4ff
8ee-
8dd
8cc
=37
2g
8.g
16g
=38
4f#
8eee-
8r
8eee-
8r
=39
2g
8.a-
16g
=40
4f#
8eee-
8r
8eee-
8r
=41
4r
4eee-
4eee-
=42
4ddd
8eee-
8r
4r
=43
8.fff
16ccc
8ddd
8r
4r
=44
8.gg
16dd
8ee-
8r
4r
=45
4r
8..gg
32dd
8..eee-
32bb
=46
8..ccc
32gg
8..aa-
32aa-
8..aa-
32aa-
=47
8.aa-
16ff
16dd
16r
16b
16r
16a-
16r
16f
16r
=48
16d
16r
16B
16r
16A-
16r
8r
4r
=49
8r
8F
8D
8BB
8AA-
8GG
=50
8r
8a
8r
8g
8r
8f
=51
4e
8f
8r
4r
=52
8.g
16d
8e
4.r
=53
4e
8d
8r
4r
=54
8.d
16A
4.c
8B
=55
4c
4d
4e
=56
4e
4d
4c
=57
[2B
8B]
8B
=58
4d
8c
8r
8.r
16c
=59
8.g
16f#
4dd
4dd
=60
4dd
8.gg
16cc#
24ee
24dd
24a#
24cc
24b
24g
=61
8.g
16f#
4dd
4dd
=62
4dd
8.bb
16ff#
24aa
24gg
24cc#
48ee
48dd
48a#
48cc
48b
48g
=63
8.g
16f#
8dd
4dd
[8dd
=64
8dd]
8ff[
16ff]
48r
48ff
48ee
16dd
48r
48dd
48cc
16b
48r
48b
48a
16g
48r
48g
48f
=65
4e
8f
16r
16gg
16ff#
16gg
16aa
16gg
=66
8.g
16d
8e
16r
16gg
16ff#
16gg
16aa
16gg
=67
8.a
16e
8.f
32b-
32a
8.g
32cc
32b-
=68
8.a
32dd
32cc
8b
4ff
8ee
=69
4d
8..g
32g
8..g
32g
=70
4c#
8r
16c#
16r
16d
16r
16e
16r
=71
4r
8r
16e
16r
16f
16r
16g
16r
=72
4r
8r
8g
8a
8g
=73
8f#
8dd
4ee
16gg
16ff
16dd
16b
=74
16cc
16g
16gg
16gg
16r
16g
16gg
16gg
16r
16g
16gg
16gg
=75
16r
16g
16gg
16gg
16r
16g
16gg
16gg
16r
16a
16aa
16aa
=76
16r
16a
16aa
16aa
16r
16a
16aa
16bb-
16r
16cc
16ccc
16ccc
=77
16r
16cc
16ccc
16ccc
16r
16dd
16ddd
16ddd
16r
16dd
16ddd
16ddd
=78
8ddd
8g
8g
8g
8g
8g
=79
8.b
16dd
8cc
8g
8g
8g
=80
8.ff
16dd
8ee
4.r
=81
8.bb
16ddd
8ccc
8r
4r
=82
8.fff
16ddd
8eee
8ccc
8r
8aa
=83
8r
8aa-
8r
8gg
8r
8b
=84
8cc
8eee[
8eee]
16ddd
16ccc
16ccc
16bb
16aa
16bb
=85
8ccc
8eee[
8eee]
16ddd
16ccc
16ccc
16bb
16aa
16bb
=86
4ddd
8ccc
8r
4r
=87
4e
8f
8r
4r
=88
8.g
16d
8e
8r
4r
=89
4e
4d[
8d]
32d
32a
32f
32d
=90
4r
8r
8r
4r
==
*-
